X: 31
T: LULLE ME BEYOND THEE
B: "FIFTY OLD ENGLISH FOLK DANCE AIRS", Edgar H. Hunt ed., Schott & Co. Ltd. pub., London 1939
Z: 2004-2014 John Chambers <jc:trillian.mit.edu>
M: 6/8
L: 1/8
K: Ddor
|:\
A2A (f>e)f | (g>f)g a3 |\
A2A (f>e)d | ^c3 d3 :|\
f2f (g>f)g | (a>b)a g2c |
f2f (g>f)g | a3 g3 |\
(a>b)a g>fe | (f>e)d a3 |\
A2A (f>e)d | ^c3 d3 |]

%%sep 1 1 500
%%sep 1 1 500
